DVA
CUT[Muede kehrt ein Wandersmann zurueck
    nach der Heimat seiner Liebe Glueck]
REG[Europa, Mitteleuropa, Schweiz, Wimmis]
KEY[D1002  08  G 4/4]
MEL[-51  3_.21-712  -5__0_
    -5-6  2_.1-7265  3__0_
    -51  3_.54321  -6__0_
    1-6  -5_.1-7243  1__0_ //] >>
FCT[Liebes - Lied]
CMT[DVA-Signatur A 18 747]
